X:523
T: Der Postknecht (227), S. 489
N: T0411
O: Luxemburg
S: Singendes Volk, Esch-Alzette, 1937 posth.]
N: Blascheid, fff Michel Kaisen, 1902
N: (228)- Consdorf, Liederheft, 1848-51
R: Berufslied]
M: none
L: 1/16
K: F
C2 | F3FF6G2 | A3AA6
A2 | G2A2B6E2 | G2F2z6
C2 | F3FF6G2A3AA6
A2 | G2A2B6E2 | G2F2z6
c2 | c2f2c6B2 | A2c2F4z2
c2 | c2f2c6B2 | A2c2F4z2
c2 | c2f2A2z2
c2 | c2f2A2z2
C2 | F2F2AAc2f2AA | G2A2GGF2F2
C2 | F2F2AAc2f2AA | G2A2GGF2z2
cccc | fAAA | GGAA | FFFF
cccc | fAAA | AAGA | GGF2

